resources/svg/message-x.svg

<svg width="15" height="15" viewBox="0 0 15 15" fill="none" xmlns="http://www.w3.org/2000/svg">
<path fill-rule="evenodd" clip-rule="evenodd" d="M0 1.49935C0 0.670259 0.671165 0 1.5 0H13.5C14.3288 0 15 0.670259 15 1.49935V10.4935C15 11.3226 14.3288 11.9928 13.5 11.9928H9.7675L7.91594 14.7683C7.8232 14.9074 7.66712 14.9909 7.5 14.9909C7.33288 14.9909 7.1768 14.9074 7.08406 14.7683L5.2325 11.9928H1.5C0.671165 11.9928 0 11.3226 0 10.4935V1.49935ZM9.14648 8.85353L7.50004 7.20708L5.85359 8.85353L5.14648 8.14642L6.79293 6.49998L5.14648 4.85353L5.85359 4.14642L7.50004 5.79287L9.14648 4.14642L9.85359 4.85353L8.20714 6.49998L9.85359 8.14642L9.14648 8.85353Z" fill="black"/>
</svg>

<svg viewBox="0 0 15 15" fill="none" xmlns="http://www.w3.org/2000/svg" fill="currentColor"><path fill-rule="evenodd" clip-rule="evenodd" d="M0 1.5C0 .67.671 0 1.5 0h12c.829 0 1.5.67 1.5 1.5v8.993c0 .83-.671 1.5-1.5 1.5H9.768l-1.852 2.775a.5.5 0 01-.832 0l-1.851-2.775H1.5c-.829 0-1.5-.67-1.5-1.5V1.5zm9.146 7.354L7.5 7.207 5.854 8.854l-.708-.708L6.793 6.5 5.146 4.854l.708-.708L7.5 5.793l1.646-1.647.708.708L8.207 6.5l1.647 1.646-.708.708z" fill="currentColor"/></svg>
